X: 46
T: Polonäs efter Abraham Hagholm (nr 46)
S: efter Abraham Hagholm
R: Polonäs
O: Östergötland
B: Abraham Hagholms notbok, nr 46
B: http://www.smus.se/earkiv/fmk/browselarge.php?lang=sw&katalogid=M+26&bildnr=00012
Z: Nils L
M: 3/4
L: 1/16
K: Bm
 D2FA d2ef e4 | ABcd e2f2 g4 | f2af g2bg e2g2 | f2ed cdec AGFE |
SD2FA d2f2 e4 | ABcd e2f2 g4 | f2af g2bg e2g2 | fedc d4 D4 !fine! ::
A2ce a2a2 a4 | f2ed cdec A4 | GFED A2A2 A4 | GFED CDEC A,4 S :|

